; generated by PrusaSlicer 2.4.1+win64 on 2022-03-17 at 20:53:27 UTC

; 

; external perimeters extrusion width = 0.60mm
; perimeters extrusion width = 0.50mm
; infill extrusion width = 0.50mm
; solid infill extrusion width = 0.50mm
; top infill extrusion width = 0.45mm
; first layer extrusion width = 0.42mm

M73 P0 R412
M73 Q0 S415
M201 X1000 Y1000 Z200 E5000 ; sets maximum accelerations, mm/sec^2
M203 X200 Y200 Z12 E120 ; sets maximum feedrates, mm / sec
M204 P1250 R1250 T1250 ; sets acceleration (P, T) and retract acceleration (R), mm/sec^2
M205 X8.00 Y8.00 Z0.40 E4.50 ; sets the jerk limits, mm/sec
M205 S0 T0 ; sets the minimum extruding and travel feed rate, mm/sec
M107
;TYPE:Custom
M862.3 P "MK3S" ; printer model check
M862.1 P0.4 ; nozzle diameter check
M115 U3.10.1 ; tell printer latest fw version
G90 ; use absolute coordinates
M83 ; extruder relative mode
M104 S215 ; set extruder temp
M140 S60 ; set bed temp
M190 S60 ; wait for bed temp
M109 S215 ; wait for extruder temp
G28 W ; home all without mesh bed level
G80 ; mesh bed leveling
G1 Z0.2 F720
G1 Y-3 F1000 ; go outside print area
G92 E0
G1 X60 E9 F1000 ; intro line
G1 X100 E12.5 F1000 ; intro line
G92 E0
M221 S95

; Don't change E values below. Excessive value can damage the printer.

M907 E538 ; set extruder motor current
G21 ; set units to millimeters
G90 ; use absolute coordinates
M83 ; use relative distances for extrusion
M900 K0.05 ; Filament gcode LA 1.5
M900 K30 ; Filament gcode LA 1.0
M107
;LAYER_CHANGE
;Z:0.2
;HEIGHT:0.2
;BEFORE_LAYER_CHANGE
G92 E0.0
;0.2


G1 E-.8 F2100
G1 Z.4 F720
;AFTER_LAYER_CHANGE
;0.2
G1 X70.018 Y50.697 F10800
G1 Z.2 F720
G1 E.8 F2100
M204 S800
;TYPE:Skirt/Brim
;WIDTH:0.42
G1 F1200
G1 X71.064 Y49.821 E.04278
G1 X72.004 Y49.627 E.03008
G1 X177.996 Y49.627 E3.32331
G1 X179.303 Y50.018 E.04278
G1 X180.179 Y51.064 E.04278
G1 X180.373 Y52.004 E.03008
G1 X180.373 Y157.996 E3.32331
G1 X179.982 Y159.303 E.04278
G1 X178.936 Y160.179 E.04278
G1 X177.996 Y160.373 E.03008
G1 X72.004 Y160.373 E3.32331
G1 X70.697 Y159.982 E.04278
G1 X69.821 Y158.936 E.04278
G1 X69.627 Y157.996 E.03008
G1 X69.627 Y52.004 E3.32331
G1 X70.001 Y50.754 E.0409
M204 S1000
; printing object Simple Ice Bucket v1.stl id:0 copy 0
;WIPE_START
G1 F8640
G1 X71.064 Y49.821 E-.32671
G1 X72.004 Y49.627 E-.22155
G1 X72.921 Y49.627 E-.21174
;WIPE_END
G1 E-.04 F2100
G1 Z.6 F720
G1 X72.91 Y52.91 F10800
G1 Z.2 F720
G1 E.8 F2100
M204 S800
;TYPE:Perimeter
G1 F1200
G1 X177.09 Y52.91 E3.26648
G1 X177.09 Y157.09 E3.26648
M73 P0 R411
G1 X72.91 Y157.09 E3.26648
G1 X72.91 Y52.97 E3.2646
M204 S1000
G1 X72.533 Y52.533 F10800
M204 S800
;TYPE:External perimeter
M73 Q0 S414
G1 F1200
G1 X177.467 Y52.533 E3.29013
G1 X177.467 Y157.467 E3.29013
G1 X72.533 Y157.467 E3.29013
G1 X72.533 Y52.593 E3.28825
M204 S1000
G1 X72.919 Y52.637 F10800
;WIPE_START
G1 F8640
G1 X75.825 Y52.591 E-.76
;WIPE_END
G1 E-.04 F2100
G1 Z.6 F720
G1 X176.214 Y53.023 F10800
G1 Z.2 F720
G1 E.8 F2100
M204 S800
;TYPE:Solid infill
;WIDTH:0.420011
G1 F1200
G1 X176.807 Y53.616 E.02628
G1 X176.807 Y54.149 E.01672
G1 X175.851 Y53.193 E.0424
G1 X175.318 Y53.193 E.01672
G1 X176.807 Y54.682 E.06605
G1 X176.807 Y55.216 E.01672
G1 X174.784 Y53.193 E.0897
G1 X174.251 Y53.193 E.01672
G1 X176.807 Y55.749 E.11334
G1 X176.807 Y56.282 E.01672
G1 X173.718 Y53.193 E.13699
G1 X173.184 Y53.193 E.01672
G1 X176.807 Y56.816 E.16064
G1 X176.807 Y57.349 E.01672
G1 X172.651 Y53.193 E.18429
G1 X172.118 Y53.193 E.01672
G1 X176.807 Y57.882 E.20793
G1 X176.807 Y58.415 E.01672
G1 X171.585 Y53.193 E.23158
G1 X171.051 Y53.193 E.01672
G1 X176.807 Y58.949 E.25523
G1 X176.807 Y59.482 E.01672
G1 X170.518 Y53.193 E.27888
G1 X169.985 Y53.193 E.01672
G1 X176.807 Y60.015 E.30252
G1 X176.807 Y60.549 E.01672
G1 X169.451 Y53.193 E.32617
G1 X168.918 Y53.193 E.01672
G1 X176.807 Y61.082 E.34982
G1 X176.807 Y61.615 E.01672
G1 X168.385 Y53.193 E.37347
G1 X167.852 Y53.193 E.01672
G1 X176.807 Y62.148 E.39711
G1 X176.807 Y62.682 E.01672
G1 X167.318 Y53.193 E.42076
G1 X166.785 Y53.193 E.01672
G1 X176.807 Y63.215 E.44441
G1 X176.807 Y63.748 E.01672
G1 X166.252 Y53.193 E.46806
G1 X165.718 Y53.193 E.01672
G1 X176.807 Y64.282 E.4917
G1 X176.807 Y64.815 E.01672
G1 X165.185 Y53.193 E.51535
G1 X164.652 Y53.193 E.01672
G1 X176.807 Y65.348 E.539
G1 X176.807 Y65.881 E.01672
G1 X164.119 Y53.193 E.56265
G1 X163.585 Y53.193 E.01672
G1 X176.807 Y66.415 E.5863
G1 X176.807 Y66.948 E.01672
G1 X163.052 Y53.193 E.60994
G1 X162.519 Y53.193 E.01672
G1 X176.807 Y67.481 E.63359
G1 X176.807 Y68.015 E.01672
G1 X161.985 Y53.193 E.65724
G1 X161.452 Y53.193 E.01672
G1 X176.807 Y68.548 E.68089
G1 X176.807 Y69.081 E.01672
G1 X160.919 Y53.193 E.70453
G1 X160.385 Y53.193 E.01672
G1 X176.807 Y69.615 E.72818
G1 X176.807 Y70.148 E.01672
G1 X159.852 Y53.193 E.75183
G1 X159.319 Y53.193 E.01672
M73 P0 R410
G1 X176.807 Y70.681 E.77548
G1 X176.807 Y71.214 E.01672
G1 X158.786 Y53.193 E.79912
G1 X158.252 Y53.193 E.01672
G1 X176.807 Y71.748 E.82277
G1 X176.807 Y72.281 E.01672
G1 X157.719 Y53.193 E.84642
G1 X157.186 Y53.193 E.01672
G1 X176.807 Y72.814 E.87007
G1 X176.807 Y73.348 E.01672
G1 X156.652 Y53.193 E.89371
G1 X156.119 Y53.193 E.01672
G1 X176.807 Y73.881 E.91736
G1 X176.807 Y74.414 E.01672
G1 X155.586 Y53.193 E.94101
G1 X155.053 Y53.193 E.01672
G1 X176.807 Y74.947 E.96466
G1 X176.807 Y75.481 E.01672
G1 X154.519 Y53.193 E.9883
G1 X153.986 Y53.193 E.01672
M73 Q0 S413
G1 X176.807 Y76.014 E1.01195
G1 X176.807 Y76.547 E.01672
G1 X153.453 Y53.193 E1.0356
G1 X152.919 Y53.193 E.01672
G1 X176.807 Y77.081 E1.05925
G1 X176.807 Y77.614 E.01672
G1 X152.386 Y53.193 E1.08289
G1 X151.853 Y53.193 E.01672
G1 X176.807 Y78.147 E1.10654
G1 X176.807 Y78.68 E.01672
G1 X151.32 Y53.193 E1.13019
G1 X150.786 Y53.193 E.01672
G1 X176.807 Y79.214 E1.15384
G1 X176.807 Y79.747 E.01672
G1 X150.253 Y53.193 E1.17748
G1 X149.72 Y53.193 E.01672
G1 X176.807 Y80.28 E1.20113
G1 X176.807 Y80.814 E.01672
G1 X149.186 Y53.193 E1.22478
G1 X148.653 Y53.193 E.01672
G1 X176.807 Y81.347 E1.24843
G1 X176.807 Y81.88 E.01672
G1 X148.12 Y53.193 E1.27207
G1 X147.587 Y53.193 E.01672
G1 X176.807 Y82.413 E1.29572
G1 X176.807 Y82.947 E.01672
G1 X147.053 Y53.193 E1.31937
G1 X146.52 Y53.193 E.01672
G1 X176.807 Y83.48 E1.34302
G1 X176.807 Y84.013 E.01672
G1 X145.987 Y53.193 E1.36666
G1 X145.453 Y53.193 E.01672
G1 X176.807 Y84.547 E1.39031
G1 X176.807 Y85.08 E.01672
G1 X144.92 Y53.193 E1.41396
G1 X144.387 Y53.193 E.01672
G1 X176.807 Y85.613 E1.43761
G1 X176.807 Y86.146 E.01672
G1 X143.854 Y53.193 E1.46125
G1 X143.32 Y53.193 E.01672
G1 X176.807 Y86.68 E1.4849
G1 X176.807 Y87.213 E.01672
G1 X142.787 Y53.193 E1.50855
G1 X142.254 Y53.193 E.01672
G1 X176.807 Y87.746 E1.5322
G1 X176.807 Y88.28 E.01672
M73 P0 R409
G1 X141.72 Y53.193 E1.55585
G1 X141.187 Y53.193 E.01672
G1 X176.807 Y88.813 E1.57949
G1 X176.807 Y89.346 E.01672
G1 X140.654 Y53.193 E1.60314
G1 X140.121 Y53.193 E.01672
G1 X176.807 Y89.879 E1.62679
G1 X176.807 Y90.413 E.01672
G1 X139.587 Y53.193 E1.65044
G1 X139.054 Y53.193 E.01672
M73 Q0 S412
G1 X176.807 Y90.946 E1.67408
G1 X176.807 Y91.479 E.01672
G1 X138.521 Y53.193 E1.69773
G1 X137.987 Y53.193 E.01672
G1 X176.807 Y92.013 E1.72138
G1 X176.807 Y92.546 E.01672
G1 X137.454 Y53.193 E1.74503
G1 X136.921 Y53.193 E.01672
G1 X176.807 Y93.079 E1.76867
G1 X176.807 Y93.612 E.01672
G1 X136.388 Y53.193 E1.79232
G1 X135.854 Y53.193 E.01672
G1 X176.807 Y94.146 E1.81597
G1 X176.807 Y94.679 E.01672
G1 X135.321 Y53.193 E1.83962
G1 X134.788 Y53.193 E.01672
G1 X176.807 Y95.212 E1.86326
G1 X176.807 Y95.746 E.01672
G1 X134.254 Y53.193 E1.88691
G1 X133.721 Y53.193 E.01672
G1 X176.807 Y96.279 E1.91056
G1 X176.807 Y96.812 E.01672
G1 X133.188 Y53.193 E1.93421
G1 X132.655 Y53.193 E.01672
G1 X176.807 Y97.345 E1.95785
G1 X176.807 Y97.879 E.01672
G1 X132.121 Y53.193 E1.9815
G1 X131.588 Y53.193 E.01672
G1 X176.807 Y98.412 E2.00515
G1 X176.807 Y98.945 E.01672
G1 X131.055 Y53.193 E2.0288
G1 X130.521 Y53.193 E.01672
M73 P0 R408
G1 X176.807 Y99.479 E2.05244
G1 X176.807 Y100.012 E.01672
G1 X129.988 Y53.193 E2.07609
G1 X129.455 Y53.193 E.01672
G1 X176.807 Y100.545 E2.09974
G1 X176.807 Y101.078 E.01672
G1 X128.922 Y53.193 E2.12339
G1 X128.388 Y53.193 E.01672
M73 Q0 S411
G1 X176.807 Y101.612 E2.14703
G1 X176.807 Y102.145 E.01672
G1 X127.855 Y53.193 E2.17068
G1 X127.322 Y53.193 E.01672
G1 X176.807 Y102.678 E2.19433
G1 X176.807 Y103.212 E.01672
G1 X126.788 Y53.193 E2.21798
G1 X126.255 Y53.193 E.01672
G1 X176.807 Y103.745 E2.24162
G1 X176.807 Y104.278 E.01672
G1 X125.722 Y53.193 E2.26527
G1 X125.189 Y53.193 E.01672
M73 P1 R408
M73 Q1 S411
G1 X176.807 Y104.811 E2.28892
G1 X176.807 Y105.345 E.01672
G1 X124.655 Y53.193 E2.31257
G1 X124.122 Y53.193 E.01672
G1 X176.807 Y105.878 E2.33621
G1 X176.807 Y106.411 E.01672
G1 X123.589 Y53.193 E2.35986
G1 X123.055 Y53.193 E.01672
G1 X176.807 Y106.945 E2.38351
G1 X176.807 Y107.478 E.01672
G1 X122.522 Y53.193 E2.40716
G1 X121.989 Y53.193 E.01672
M73 P1 R407
G1 X176.807 Y108.011 E2.43081
G1 X176.807 Y108.544 E.01672
G1 X121.456 Y53.193 E2.45445
G1 X120.922 Y53.193 E.01672
G1 X176.807 Y109.078 E2.4781
G1 X176.807 Y109.611 E.01672
G1 X120.389 Y53.193 E2.50175
G1 X119.856 Y53.193 E.01672
M73 Q1 S410
G1 X176.807 Y110.144 E2.5254
G1 X176.807 Y110.678 E.01672
G1 X119.322 Y53.193 E2.54904
G1 X118.789 Y53.193 E.01672
G1 X176.807 Y111.211 E2.57269
G1 X176.807 Y111.744 E.01672
G1 X118.256 Y53.193 E2.59634
G1 X117.723 Y53.193 E.01672
G1 X176.807 Y112.277 E2.61999
G1 X176.807 Y112.811 E.01672
G1 X117.189 Y53.193 E2.64363
G1 X116.656 Y53.193 E.01672
G1 X176.807 Y113.344 E2.66728
G1 X176.807 Y113.877 E.01672
G1 X116.123 Y53.193 E2.69093
G1 X115.589 Y53.193 E.01672
G1 X176.807 Y114.411 E2.71458
G1 X176.807 Y114.944 E.01672
G1 X115.056 Y53.193 E2.73822
G1 X114.523 Y53.193 E.01672
G1 X176.807 Y115.477 E2.76187
G1 X176.807 Y116.01 E.01672
M73 P1 R406
G1 X113.99 Y53.193 E2.78552
G1 X113.456 Y53.193 E.01672
G1 X176.807 Y116.544 E2.80917
G1 X176.807 Y117.077 E.01672
G1 X112.923 Y53.193 E2.83281
G1 X112.39 Y53.193 E.01672
M73 Q1 S409
G1 X176.807 Y117.61 E2.85646
G1 X176.807 Y118.144 E.01672
G1 X111.856 Y53.193 E2.88011
G1 X111.323 Y53.193 E.01672
G1 X176.807 Y118.677 E2.90376
G1 X176.807 Y119.21 E.01672
G1 X110.79 Y53.193 E2.9274
G1 X110.256 Y53.193 E.01672
G1 X176.807 Y119.744 E2.95105
G1 X176.807 Y120.277 E.01672
G1 X109.723 Y53.193 E2.9747
G1 X109.19 Y53.193 E.01672
G1 X176.807 Y120.81 E2.99835
G1 X176.807 Y121.343 E.01672
G1 X108.657 Y53.193 E3.02199
G1 X108.123 Y53.193 E.01672
G1 X176.807 Y121.877 E3.04564
G1 X176.807 Y122.41 E.01672
G1 X107.59 Y53.193 E3.06929
G1 X107.057 Y53.193 E.01672
M73 P1 R405
G1 X176.807 Y122.943 E3.09294
G1 X176.807 Y123.477 E.01672
G1 X106.523 Y53.193 E3.11658
G1 X105.99 Y53.193 E.01672
M73 Q1 S408
G1 X176.807 Y124.01 E3.14023
G1 X176.807 Y124.543 E.01672
G1 X105.457 Y53.193 E3.16388
G1 X104.924 Y53.193 E.01672
G1 X176.807 Y125.076 E3.18753
G1 X176.807 Y125.61 E.01672
G1 X104.39 Y53.193 E3.21117
G1 X103.857 Y53.193 E.01672
G1 X176.807 Y126.143 E3.23482
G1 X176.807 Y126.676 E.01672
G1 X103.324 Y53.193 E3.25847
G1 X102.79 Y53.193 E.01672
G1 X176.807 Y127.21 E3.28212
G1 X176.807 Y127.743 E.01672
G1 X102.257 Y53.193 E3.30576
G1 X101.724 Y53.193 E.01672
G1 X176.807 Y128.276 E3.32941
G1 X176.807 Y128.809 E.01672
M73 P1 R404
G1 X101.191 Y53.193 E3.35306
G1 X100.657 Y53.193 E.01672
G1 X176.807 Y129.343 E3.37671
G1 X176.807 Y129.876 E.01672
G1 X100.124 Y53.193 E3.40036
G1 X99.591 Y53.193 E.01672
M73 Q1 S407
G1 X176.807 Y130.409 E3.424
G1 X176.807 Y130.943 E.01672
G1 X99.057 Y53.193 E3.44765
G1 X98.524 Y53.193 E.01672
G1 X176.807 Y131.476 E3.4713
G1 X176.807 Y132.009 E.01672
G1 X97.991 Y53.193 E3.49495
G1 X97.458 Y53.193 E.01672
G1 X176.807 Y132.542 E3.51859
G1 X176.807 Y133.076 E.01672
M73 P2 R404
M73 Q2 S407
G1 X96.924 Y53.193 E3.54224
G1 X96.391 Y53.193 E.01672
G1 X176.807 Y133.609 E3.56589
G1 X176.807 Y134.142 E.01672
G1 X95.858 Y53.193 E3.58954
G1 X95.324 Y53.193 E.01672
M73 P2 R403
G1 X176.807 Y134.676 E3.61318
G1 X176.807 Y135.209 E.01672
G1 X94.791 Y53.193 E3.63683
G1 X94.258 Y53.193 E.01672
M73 Q2 S406
G1 X176.807 Y135.742 E3.66048
G1 X176.807 Y136.275 E.01672
G1 X93.725 Y53.193 E3.68413
G1 X93.191 Y53.193 E.01672
G1 X176.807 Y136.809 E3.70777
G1 X176.807 Y137.342 E.01672
G1 X92.658 Y53.193 E3.73142
G1 X92.125 Y53.193 E.01672
G1 X176.807 Y137.875 E3.75507
G1 X176.807 Y138.409 E.01672
G1 X91.591 Y53.193 E3.77872
G1 X91.058 Y53.193 E.01672
G1 X176.807 Y138.942 E3.80236
G1 X176.807 Y139.475 E.01672
G1 X90.525 Y53.193 E3.82601
G1 X89.992 Y53.193 E.01672
M73 P2 R402
G1 X176.807 Y140.008 E3.84966
G1 X176.807 Y140.542 E.01672
G1 X89.458 Y53.193 E3.87331
G1 X88.925 Y53.193 E.01672
M73 Q2 S405
G1 X176.807 Y141.075 E3.89695
G1 X176.807 Y141.608 E.01672
G1 X88.392 Y53.193 E3.9206
G1 X87.858 Y53.193 E.01672
G1 X176.807 Y142.142 E3.94425
G1 X176.807 Y142.675 E.01672
G1 X87.325 Y53.193 E3.9679
G1 X86.792 Y53.193 E.01672
G1 X176.807 Y143.208 E3.99154
G1 X176.807 Y143.741 E.01672
G1 X86.259 Y53.193 E4.01519
G1 X85.725 Y53.193 E.01672
G1 X176.807 Y144.275 E4.03884
G1 X176.807 Y144.808 E.01672
G1 X85.192 Y53.193 E4.06249
G1 X84.659 Y53.193 E.01672
M73 P2 R401
G1 X176.807 Y145.341 E4.08613
G1 X176.807 Y145.875 E.01672
G1 X84.125 Y53.193 E4.10978
G1 X83.592 Y53.193 E.01672
M73 Q2 S404
G1 X176.807 Y146.408 E4.13343
G1 X176.807 Y146.941 E.01672
G1 X83.059 Y53.193 E4.15708
G1 X82.526 Y53.193 E.01672
G1 X176.807 Y147.474 E4.18072
G1 X176.807 Y148.008 E.01672
G1 X81.992 Y53.193 E4.20437
G1 X81.459 Y53.193 E.01672
G1 X176.807 Y148.541 E4.22802
G1 X176.807 Y149.074 E.01672
G1 X80.926 Y53.193 E4.25167
G1 X80.392 Y53.193 E.01672
G1 X176.807 Y149.608 E4.27531
G1 X176.807 Y150.141 E.01672
M73 P2 R400
G1 X79.859 Y53.193 E4.29896
G1 X79.326 Y53.193 E.01672
G1 X176.807 Y150.674 E4.32261
G1 X176.807 Y151.207 E.01672
M73 Q2 S403
G1 X78.793 Y53.193 E4.34626
G1 X78.259 Y53.193 E.01672
G1 X176.807 Y151.741 E4.36991
G1 X176.807 Y152.274 E.01672
G1 X77.726 Y53.193 E4.39355
G1 X77.193 Y53.193 E.01672
G1 X176.807 Y152.807 E4.4172
G1 X176.807 Y153.341 E.01672
G1 X76.659 Y53.193 E4.44085
G1 X76.126 Y53.193 E.01672
M73 P3 R400
M73 Q3 S403
G1 X176.807 Y153.874 E4.4645
G1 X176.807 Y154.407 E.01672
M73 P3 R399
G1 X75.593 Y53.193 E4.48814
G1 X75.06 Y53.193 E.01672
G1 X176.807 Y154.94 E4.51179
G1 X176.807 Y155.474 E.01672
M73 Q3 S402
G1 X74.526 Y53.193 E4.53544
G1 X73.993 Y53.193 E.01672
G1 X176.807 Y156.007 E4.55909
G1 X176.807 Y156.54 E.01672
G1 X73.46 Y53.193 E4.58273
G1 X73.193 Y53.193 E.00836
G1 X73.193 Y53.46 E.00836
G1 X176.54 Y156.807 E4.58274
G1 X176.007 Y156.807 E.01672
G1 X73.193 Y53.993 E4.55909
G1 X73.193 Y54.526 E.01672
G1 X175.474 Y156.807 E4.53544
G1 X174.941 Y156.807 E.01672
M73 P3 R398
G1 X73.193 Y55.059 E4.5118
G1 X73.193 Y55.593 E.01672
G1 X174.407 Y156.807 E4.48815
G1 X173.874 Y156.807 E.01672
M73 Q3 S401
G1 X73.193 Y56.126 E4.4645
G1 X73.193 Y56.659 E.01672
G1 X173.341 Y156.807 E4.44085
G1 X172.807 Y156.807 E.01672
G1 X73.193 Y57.193 E4.41721
G1 X73.193 Y57.726 E.01672
G1 X172.274 Y156.807 E4.39356
G1 X171.741 Y156.807 E.01672
G1 X73.193 Y58.259 E4.36991
G1 X73.193 Y58.792 E.01672
G1 X171.208 Y156.807 E4.34626
G1 X170.674 Y156.807 E.01672
G1 X73.193 Y59.326 E4.32262
G1 X73.193 Y59.859 E.01672
M73 P3 R397
G1 X170.141 Y156.807 E4.29897
G1 X169.608 Y156.807 E.01672
G1 X73.193 Y60.392 E4.27532
G1 X73.193 Y60.926 E.01672
M73 Q3 S400
G1 X169.074 Y156.807 E4.25167
G1 X168.541 Y156.807 E.01672
G1 X73.193 Y61.459 E4.22803
G1 X73.193 Y61.992 E.01672
G1 X168.008 Y156.807 E4.20438
G1 X167.475 Y156.807 E.01672
G1 X73.193 Y62.525 E4.18073
G1 X73.193 Y63.059 E.01672
G1 X166.941 Y156.807 E4.15708
G1 X166.408 Y156.807 E.01672
G1 X73.193 Y63.592 E4.13344
G1 X73.193 Y64.125 E.01672
G1 X165.875 Y156.807 E4.10979
G1 X165.341 Y156.807 E.01672
M73 P3 R396
G1 X73.193 Y64.659 E4.08614
G1 X73.193 Y65.192 E.01672
G1 X164.808 Y156.807 E4.06249
G1 X164.275 Y156.807 E.01672
M73 Q3 S399
G1 X73.193 Y65.725 E4.03885
G1 X73.193 Y66.258 E.01672
G1 X163.742 Y156.807 E4.0152
G1 X163.208 Y156.807 E.01672
G1 X73.193 Y66.792 E3.99155
G1 X73.193 Y67.325 E.01672
G1 X162.675 Y156.807 E3.9679
